X: 247
T:Sophie's Dancing Feet
C: Aly Bain
D:Transatlantic Sessions Vol. 3
R:reel
Z:transcription Johannes Schiefner (jschiefner@gmx.net)
Z:id:js_1936
Q:1/8=455
M:C
K:D
FGAF GABG|FAdf afdf|gabg efge|cdec ABAG|
FGAF GABG|FAdf afdf |gabg efge|1cABc dBAG:|2cABc d2cd||
eA ~A2 eAgA|fA~A2 fAaA|gfeg fedf|efgf edcd|
eA ~A2 eAgA|fA~A2 fAaf|bagf gfed|cABc d2cd:|]

